img/duckstation.svg

<?xml version="1.0" encoding="UTF-8"?>
<svg xmlns="http://www.w3.org/2000/svg" xmlns:xlink="http://www.w3.org/1999/xlink" width="512px" height="512px" viewBox="0 0 512 512" version="1.1">
<defs>
<filter id="alpha" filterUnits="objectBoundingBox" x="0%" y="0%" width="100%" height="100%">
  <feColorMatrix type="matrix" in="SourceGraphic" values="0 0 0 0 1 0 0 0 0 1 0 0 0 0 1 0 0 0 1 0"/>
</filter>
<mask id="mask0">
  <g filter="url(#alpha)">
<rect x="0" y="0" width="512" height="512" style="fill:rgb(0%,0%,0%);fill-opacity:0.2;stroke:none;"/>
  </g>
</mask>
<clipPath id="clip1">
  <rect x="0" y="0" width="512" height="512"/>
</clipPath>
<g id="surface5" clip-path="url(#clip1)">
<path style=" stroke:none;fill-rule:nonzero;fill:rgb(0%,0%,0%);fill-opacity:1;" d="M 272.0625 288 L 248 301.875 L 248 407.28125 L 272.0625 421.21875 L 296.125 435.09375 L 320.1875 421.21875 L 320.1875 394.09375 L 296.125 380.1875 L 296.125 301.875 Z M 192.0625 340.90625 L 168 354.78125 L 168 460.1875 L 192.0625 474.125 L 216.125 488 L 240.1875 474.125 L 240.1875 447.03125 L 216.125 433.09375 L 216.125 354.78125 Z M 192.0625 340.90625 "/>
</g>
<mask id="mask1">
  <g filter="url(#alpha)">
<rect x="0" y="0" width="512" height="512" style="fill:rgb(0%,0%,0%);fill-opacity:0.2;stroke:none;"/>
  </g>
</mask>
<clipPath id="clip2">
  <rect x="0" y="0" width="512" height="512"/>
</clipPath>
<g id="surface8" clip-path="url(#clip2)">
<path style=" stroke:none;fill-rule:nonzero;fill:rgb(0%,0%,0%);fill-opacity:1;" d="M 200 108.285156 L 328 182.183594 L 328 329.988281 L 200 403.886719 L 72 329.988281 L 72 182.183594 Z M 200 108.285156 "/>
</g>
<mask id="mask2">
  <g filter="url(#alpha)">
<rect x="0" y="0" width="512" height="512" style="fill:rgb(0%,0%,0%);fill-opacity:0.2;stroke:none;"/>
  </g>
</mask>
<clipPath id="clip3">
  <rect x="0" y="0" width="512" height="512"/>
</clipPath>
<g id="surface11" clip-path="url(#clip3)">
<path style=" stroke:none;fill-rule:nonzero;fill:rgb(0%,0%,0%);fill-opacity:1;" d="M 280 52.066406 L 392 116.730469 L 392 246.058594 L 280 310.71875 L 168 246.058594 L 168 116.730469 Z M 280 52.066406 "/>
</g>
<mask id="mask3">
  <g filter="url(#alpha)">
<rect x="0" y="0" width="512" height="512" style="fill:rgb(0%,0%,0%);fill-opacity:0.2;stroke:none;"/>
  </g>
</mask>
<clipPath id="clip4">
  <rect x="0" y="0" width="512" height="512"/>
</clipPath>
<g id="surface14" clip-path="url(#clip4)">
<path style=" stroke:none;fill-rule:nonzero;fill:rgb(0%,0%,0%);fill-opacity:1;" d="M 368 236.71875 L 304 247.375 L 304 268.71875 L 368 300.71875 L 432 268.71875 L 432 247.375 Z M 368 236.71875 "/>
</g>
<mask id="mask4">
  <g filter="url(#alpha)">
<rect x="0" y="0" width="512" height="512" style="fill:rgb(0%,0%,0%);fill-opacity:0.2;stroke:none;"/>
  </g>
</mask>
<clipPath id="clip5">
  <rect x="0" y="0" width="512" height="512"/>
</clipPath>
<g id="surface17" clip-path="url(#clip5)">
<path style=" stroke:none;fill-rule:nonzero;fill:rgb(0%,0%,0%);fill-opacity:1;" d="M 112 66.582031 L 152 89.679688 L 152 135.867188 L 112 158.960938 L 72 135.867188 L 72 89.679688 Z M 112 66.582031 "/>
</g>
<mask id="mask5">
  <g filter="url(#alpha)">
<rect x="0" y="0" width="512" height="512" style="fill:rgb(0%,0%,0%);fill-opacity:0.2;stroke:none;"/>
  </g>
</mask>
<clipPath id="clip6">
  <rect x="0" y="0" width="512" height="512"/>
</clipPath>
<g id="surface20" clip-path="url(#clip6)">
<path style=" stroke:none;fill-rule:nonzero;fill:rgb(100%,100%,100%);fill-opacity:1;" d="M 280 36.0625 L 168 100.71875 L 174.921875 104.71875 L 280 44.0625 L 385.078125 104.71875 L 392 100.71875 Z M 280 36.0625 "/>
</g>
<mask id="mask6">
  <g filter="url(#alpha)">
<rect x="0" y="0" width="512" height="512" style="fill:rgb(0%,0%,0%);fill-opacity:0.2;stroke:none;"/>
  </g>
</mask>
<clipPath id="clip7">
  <rect x="0" y="0" width="512" height="512"/>
</clipPath>
<g id="surface23" clip-path="url(#clip7)">
<path style=" stroke:none;fill-rule:nonzero;fill:rgb(100%,100%,100%);fill-opacity:1;" d="M 112 58.59375 L 72 81.671875 L 78.921875 85.671875 L 112 66.59375 L 145.078125 85.671875 L 152 81.671875 Z M 112 58.59375 "/>
</g>
</defs>
<g id="surface1">
<use xlink:href="#surface5" mask="url(#mask0)"/>
<path style=" stroke:none;fill-rule:nonzero;fill:rgb(72.941176%,17.254902%,0%);fill-opacity:1;" d="M 272.0625 358.316406 L 248 372.203125 L 248 399.292969 L 272.0625 413.203125 L 296.128906 427.09375 L 320.191406 413.203125 L 320.191406 386.117188 L 296.128906 372.203125 Z M 272.0625 358.316406 "/>
<path style=" stroke:none;fill-rule:nonzero;fill:rgb(100%,47.45098%,0%);fill-opacity:1;" d="M 272.0625 358.308594 L 248 372.195312 L 272.0625 386.109375 L 296.128906 399.996094 L 320.191406 386.109375 L 296.128906 372.195312 Z M 272.0625 358.308594 "/>
<path style=" stroke:none;fill-rule:nonzero;fill:rgb(100%,25.882353%,0%);fill-opacity:1;" d="M 272.0625 279.984375 L 296.128906 293.878906 L 296.128906 372.203125 L 272.0625 386.097656 L 248 372.203125 L 248 293.878906 Z M 272.0625 279.984375 "/>
<path style=" stroke:none;fill-rule:nonzero;fill:rgb(100%,25.882353%,0%);fill-opacity:1;" d="M 296.128906 427.09375 L 320.191406 413.203125 L 320.191406 386.109375 L 296.128906 399.996094 Z M 296.128906 427.09375 "/>
<path style=" stroke:none;fill-rule:nonzero;fill:rgb(72.941176%,17.254902%,0%);fill-opacity:1;" d="M 272.0625 279.984375 L 272.0625 386.097656 L 248 372.203125 L 248 293.878906 Z M 272.0625 279.984375 "/>
<path style=" stroke:none;fill-rule:nonzero;fill:rgb(72.941176%,17.254902%,0%);fill-opacity:1;" d="M 192.0625 411.222656 L 168 425.109375 L 168 452.199219 L 192.0625 466.113281 L 216.128906 480 L 240.191406 466.113281 L 240.191406 439.023438 L 216.128906 425.109375 Z M 192.0625 411.222656 "/>
<path style=" stroke:none;fill-rule:nonzero;fill:rgb(100%,25.882353%,0%);fill-opacity:1;" d="M 216.128906 480 L 240.191406 466.113281 L 240.191406 439.015625 L 216.128906 452.90625 Z M 216.128906 480 "/>
<path style=" stroke:none;fill-rule:nonzero;fill:rgb(100%,47.45098%,0%);fill-opacity:1;" d="M 192.0625 411.214844 L 168 425.105469 L 192.0625 439.015625 L 216.128906 452.90625 L 240.191406 439.015625 L 216.128906 425.105469 Z M 192.0625 411.214844 "/>
<path style=" stroke:none;fill-rule:nonzero;fill:rgb(100%,25.882353%,0%);fill-opacity:1;" d="M 192.0625 332.894531 L 216.128906 346.785156 L 216.128906 425.109375 L 192.0625 439.003906 L 168 425.109375 L 168 346.785156 Z M 192.0625 332.894531 "/>
<path style=" stroke:none;fill-rule:nonzero;fill:rgb(72.941176%,17.254902%,0%);fill-opacity:1;" d="M 192.0625 332.894531 L 192.0625 439.003906 L 168 425.109375 L 168 346.785156 Z M 192.0625 332.894531 "/>
<use xlink:href="#surface8" mask="url(#mask1)"/>
<path style=" stroke:none;fill-rule:nonzero;fill:rgb(100%,80.784314%,0%);fill-opacity:1;" d="M 200 100.285156 L 328 174.183594 L 328 321.988281 L 200 395.886719 L 72 321.988281 L 72 174.183594 Z M 200 100.285156 "/>
<path style=" stroke:none;fill-rule:nonzero;fill:rgb(100%,40.392157%,0%);fill-opacity:1;" d="M 72 174.175781 L 72 321.988281 L 200 395.886719 L 200 248.09375 Z M 72 174.175781 "/>
<path style=" stroke:none;fill-rule:nonzero;fill:rgb(100%,76.078431%,0%);fill-opacity:1;" d="M 200 100.28125 L 72 174.175781 L 200 248.09375 L 328 174.175781 Z M 200 100.28125 "/>
<use xlink:href="#surface11" mask="url(#mask2)"/>
<path style=" stroke:none;fill-rule:nonzero;fill:rgb(100%,61.960784%,0.784314%);fill-opacity:1;" d="M 280 36.066406 L 392 100.730469 L 392 230.054688 L 280 294.71875 L 168 230.054688 L 168 100.730469 Z M 280 36.066406 "/>
<path style=" stroke:none;fill-rule:nonzero;fill:rgb(24.705882%,24.705882%,24.705882%);fill-opacity:1;" d="M 296 193.96875 L 320 179.570312 L 320 211.96875 L 296 226.371094 Z M 296 193.96875 "/>
<path style=" stroke:none;fill-rule:nonzero;fill:rgb(100%,40.392157%,0%);fill-opacity:1;" d="M 168 100.71875 L 168 230.042969 L 280 294.730469 L 280 165.382812 Z M 168 100.71875 "/>
<path style=" stroke:none;fill-rule:nonzero;fill:rgb(100%,76.078431%,0%);fill-opacity:1;" d="M 280 36.058594 L 168 100.71875 L 280 165.382812 L 392 100.71875 Z M 280 36.058594 "/>
<path style=" stroke:none;fill-rule:nonzero;fill:rgb(24.705882%,24.705882%,24.705882%);fill-opacity:1;" d="M 352 164 L 376 149.601562 L 376 182 L 352 196.398438 Z M 352 164 "/>
<use xlink:href="#surface14" mask="url(#mask3)"/>
<path style=" stroke:none;fill-rule:nonzero;fill:rgb(72.941176%,17.254902%,0%);fill-opacity:1;" d="M 368 228.703125 L 368 292.703125 L 304 260.703125 L 304 239.371094 Z M 368 228.703125 "/>
<path style=" stroke:none;fill-rule:nonzero;fill:rgb(100%,47.45098%,0%);fill-opacity:1;" d="M 368 228.703125 L 368 292.703125 L 432 260.703125 L 432 239.371094 Z M 368 228.703125 "/>
<path style=" stroke:none;fill-rule:nonzero;fill:rgb(100%,25.882353%,0%);fill-opacity:1;" d="M 368.003906 207.398438 L 432 239.398438 L 368.003906 271.398438 L 304.003906 239.398438 Z M 368.003906 207.398438 "/>
<use xlink:href="#surface17" mask="url(#mask4)"/>
<path style=" stroke:none;fill-rule:nonzero;fill:rgb(100%,61.960784%,0.784314%);fill-opacity:1;" d="M 112 58.582031 L 152 81.679688 L 152 127.867188 L 112 150.960938 L 72 127.867188 L 72 81.679688 Z M 112 58.582031 "/>
<path style=" stroke:none;fill-rule:nonzero;fill:rgb(100%,40.392157%,0%);fill-opacity:1;" d="M 72 81.675781 L 72 127.867188 L 112 150.953125 C 112 150.960938 112 104.78125 112 104.78125 Z M 72 81.675781 "/>
<path style=" stroke:none;fill-rule:nonzero;fill:rgb(100%,76.078431%,0%);fill-opacity:1;" d="M 112 58.589844 L 72 81.675781 L 112 104.78125 L 152 81.675781 Z M 112 58.589844 "/>
<use xlink:href="#surface20" mask="url(#mask5)"/>
<use xlink:href="#surface23" mask="url(#mask6)"/>
</g>
</svg>

<svg xmlns="http://www.w3.org/2000/svg" xmlns:xlink="http://www.w3.org/1999/xlink" width="512" height="512"><defs><clipPath id="b"><path d="M0 0h512v512H0z"/></clipPath><clipPath id="c"><path d="M0 0h512v512H0z"/></clipPath><clipPath id="d"><path d="M0 0h512v512H0z"/></clipPath><clipPath id="e"><path d="M0 0h512v512H0z"/></clipPath><clipPath id="f"><path d="M0 0h512v512H0z"/></clipPath><clipPath id="g"><path d="M0 0h512v512H0z"/></clipPath><clipPath id="h"><path d="M0 0h512v512H0z"/></clipPath><mask id="j"><g filter="url(#a)"><path d="M0 0h512v512H0z" style="fill:#000;fill-opacity:.2;stroke:none"/></g></mask><mask id="l"><g filter="url(#a)"><path d="M0 0h512v512H0z" style="fill:#000;fill-opacity:.2;stroke:none"/></g></mask><mask id="n"><g filter="url(#a)"><path d="M0 0h512v512H0z" style="fill:#000;fill-opacity:.2;stroke:none"/></g></mask><mask id="p"><g filter="url(#a)"><path d="M0 0h512v512H0z" style="fill:#000;fill-opacity:.2;stroke:none"/></g></mask><mask id="r"><g filter="url(#a)"><path d="M0 0h512v512H0z" style="fill:#000;fill-opacity:.2;stroke:none"/></g></mask><mask id="t"><g filter="url(#a)"><path d="M0 0h512v512H0z" style="fill:#000;fill-opacity:.2;stroke:none"/></g></mask><mask id="v"><g filter="url(#a)"><path d="M0 0h512v512H0z" style="fill:#000;fill-opacity:.2;stroke:none"/></g></mask><g id="i" clip-path="url(#b)"><path d="M272.063 288 248 301.875v105.406l24.063 13.938 24.062 13.875 24.063-13.875v-27.125l-24.063-13.906v-78.313Zm-80 52.906L168 354.781v105.407l24.063 13.937L216.125 488l24.063-13.875v-27.094l-24.063-13.937V354.78Zm0 0" style="stroke:none;fill-rule:nonzero;fill:#000;fill-opacity:1"/></g><g id="k" clip-path="url(#c)"><path d="m200 108.285 128 73.899v147.804l-128 73.899-128-73.899V182.184Zm0 0" style="stroke:none;fill-rule:nonzero;fill:#000;fill-opacity:1"/></g><g id="m" clip-path="url(#d)"><path d="m280 52.066 112 64.664v129.33l-112 64.66-112-64.66V116.73Zm0 0" style="stroke:none;fill-rule:nonzero;fill:#000;fill-opacity:1"/></g><g id="o" clip-path="url(#e)"><path d="m368 236.719-64 10.656v21.344l64 32 64-32v-21.344Zm0 0" style="stroke:none;fill-rule:nonzero;fill:#000;fill-opacity:1"/></g><g id="q" clip-path="url(#f)"><path d="m112 66.582 40 23.098v46.187l-40 23.094-40-23.094V89.68Zm0 0" style="stroke:none;fill-rule:nonzero;fill:#000;fill-opacity:1"/></g><g id="s" clip-path="url(#g)"><path d="m280 36.063-112 64.656 6.922 4L280 44.063l105.078 60.656 6.922-4Zm0 0" style="stroke:none;fill-rule:nonzero;fill:#fff;fill-opacity:1"/></g><g id="u" clip-path="url(#h)"><path d="M112 58.594 72 81.672l6.922 4L112 66.594l33.078 19.078 6.922-4Zm0 0" style="stroke:none;fill-rule:nonzero;fill:#fff;fill-opacity:1"/></g><filter id="a" width="100%" height="100%" x="0%" y="0%" filterUnits="objectBoundingBox"><feColorMatrix in="SourceGraphic" values="0 0 0 0 1 0 0 0 0 1 0 0 0 0 1 0 0 0 1 0"/></filter></defs><use xlink:href="#i" mask="url(#j)"/><path d="M272.063 358.316 248 372.203v27.09l24.063 13.91 24.066 13.89 24.062-13.89v-27.086l-24.062-13.914Zm0 0" style="stroke:none;fill-rule:nonzero;fill:#ba2c00;fill-opacity:1"/><path d="M272.063 358.309 248 372.195l24.063 13.914 24.066 13.887 24.062-13.887-24.062-13.914Zm0 0" style="stroke:none;fill-rule:nonzero;fill:#ff7900;fill-opacity:1"/><path d="m272.063 279.984 24.066 13.895v78.324l-24.067 13.895L248 372.203V293.88Zm24.066 147.11 24.062-13.89v-27.095l-24.062 13.887Zm0 0" style="stroke:none;fill-rule:nonzero;fill:#ff4200;fill-opacity:1"/><path d="M272.063 279.984v106.114L248 372.203V293.88Zm-80 131.239L168 425.109v27.09l24.063 13.914L216.129 480l24.062-13.887v-27.09L216.13 425.11Zm0 0" style="stroke:none;fill-rule:nonzero;fill:#ba2c00;fill-opacity:1"/><path d="m216.129 480 24.062-13.887v-27.097l-24.062 13.89Zm0 0" style="stroke:none;fill-rule:nonzero;fill:#ff4200;fill-opacity:1"/><path d="M192.063 411.215 168 425.105l24.063 13.91 24.066 13.891 24.062-13.89-24.062-13.91Zm0 0" style="stroke:none;fill-rule:nonzero;fill:#ff7900;fill-opacity:1"/><path d="m192.063 332.895 24.066 13.89v78.324l-24.066 13.895L168 425.109v-78.324Zm0 0" style="stroke:none;fill-rule:nonzero;fill:#ff4200;fill-opacity:1"/><path d="M192.063 332.895v106.109L168 425.109v-78.324Zm0 0" style="stroke:none;fill-rule:nonzero;fill:#ba2c00;fill-opacity:1"/><use xlink:href="#k" mask="url(#l)"/><path d="m200 100.285 128 73.899v147.804l-128 73.899-128-73.899V174.184Zm0 0" style="stroke:none;fill-rule:nonzero;fill:#ffce00;fill-opacity:1"/><path d="M72 174.176v147.812l128 73.899V248.094Zm0 0" style="stroke:none;fill-rule:nonzero;fill:#ff6700;fill-opacity:1"/><path d="M200 100.281 72 174.176l128 73.918 128-73.918Zm0 0" style="stroke:none;fill-rule:nonzero;fill:#ffc200;fill-opacity:1"/><use xlink:href="#m" mask="url(#n)"/><path d="m280 36.066 112 64.664v129.325l-112 64.664-112-64.664V100.73Zm0 0" style="stroke:none;fill-rule:nonzero;fill:#ff9e02;fill-opacity:1"/><path d="m296 193.969 24-14.399v32.399l-24 14.402Zm0 0" style="stroke:none;fill-rule:nonzero;fill:#3f3f3f;fill-opacity:1"/><path d="M168 100.719v129.324l112 64.687V165.383Zm0 0" style="stroke:none;fill-rule:nonzero;fill:#ff6700;fill-opacity:1"/><path d="m280 36.059-112 64.66 112 64.664 112-64.664Zm0 0" style="stroke:none;fill-rule:nonzero;fill:#ffc200;fill-opacity:1"/><path d="m352 164 24-14.398V182l-24 14.398Zm0 0" style="stroke:none;fill-rule:nonzero;fill:#3f3f3f;fill-opacity:1"/><use xlink:href="#o" mask="url(#p)"/><path d="M368 228.703v64l-64-32v-21.332Zm0 0" style="stroke:none;fill-rule:nonzero;fill:#ba2c00;fill-opacity:1"/><path d="M368 228.703v64l64-32v-21.332Zm0 0" style="stroke:none;fill-rule:nonzero;fill:#ff7900;fill-opacity:1"/><path d="m368.004 207.398 63.996 32-63.996 32-64-32Zm0 0" style="stroke:none;fill-rule:nonzero;fill:#ff4200;fill-opacity:1"/><use xlink:href="#q" mask="url(#r)"/><path d="m112 58.582 40 23.098v46.187l-40 23.094-40-23.094V81.68Zm0 0" style="stroke:none;fill-rule:nonzero;fill:#ff9e02;fill-opacity:1"/><path d="M72 81.676v46.191l40 23.086v-46.172Zm0 0" style="stroke:none;fill-rule:nonzero;fill:#ff6700;fill-opacity:1"/><path d="M112 58.59 72 81.676l40 23.105 40-23.105Zm0 0" style="stroke:none;fill-rule:nonzero;fill:#ffc200;fill-opacity:1"/><use xlink:href="#s" mask="url(#t)"/><use xlink:href="#u" mask="url(#v)"/></svg>
